X: 34
T:Skellemesago
M:6/8
L:1/8
Q:110
R:Jig
N:Another Irish title?
K:GMix
Bcd d2d|Bcd d2d|efg g2G|B>cB A2B|c>dc B>cd|A>BG E2G|DDG GBG|GBG G3||

